src/svg/google-plus-g.svg

<svg height="1000" width="1250.0" xmlns="http://www.w3.org/2000/svg">
    <path d="m754 446.3c3.6 18.9 6.2 37.8 6.2 62.4 0 214.4-143.8 366.3-360.2 366.3-207.2 0-375-167.8-375-375s167.8-375 375-375c101.3 0 185.7 36.8 251.2 98.2l-101.8 97.7c-27.6-26.6-76.2-57.8-149.4-57.8-127.9 0-232.3 105.9-232.3 236.9s104.4 236.9 232.3 236.9c148.4 0 204.1-107 212.8-161.7h-212.8v-128.9h354v0z m362.1 12.6h108.9v109.3h-108.9v108.9h-109.3v-108.9h-108.9v-109.3h108.9v-108.9h109.3v108.9z" />
  </svg>

<svg height="1000" width="1250" xmlns="http://www.w3.org/2000/svg"><path d="M754 446.3c3.6 18.9 6.2 37.8 6.2 62.4C760.2 723.1 616.4 875 400 875 192.8 875 25 707.2 25 500S192.8 125 400 125c101.3 0 185.7 36.8 251.2 98.2l-101.8 97.7C521.8 294.3 473.2 263.1 400 263.1 272.1 263.1 167.7 369 167.7 500S272.1 736.9 400 736.9c148.4 0 204.1 -107 212.8 -161.7H400V446.3h354zm362.1 12.6V350h-109.3v108.9H897.9v109.3h108.9v108.9h109.3V568.2H1225V458.9h-108.9z"/></svg>
